X: 272
T:Up in the Morning Early
G:song
S:Gall and Inglis, Select Songs of Scotland
M:6/4
L:1/4
Q:3/4=92
K:GDor
D|G2A  B2c|d>ef F2F   |G>AG d2c/A/|G3 d2D|
  G2A  B2c|d>ef F2F   |G>AG d2c/A/|G3 d2||
K:GMin
B|B>cB B2B|c>dc c2z   |d>ed f2e   |d3 f2B|
  B>cB B<BB|cdf g2f/e/|d>cB A>G^F |G3 d2|]

and it turned up in Shetland a few centuries later, adapted under Norse
influence into a far more subtle tune that goes through dorian, mixolydian
and major:

